X:144
T: Bauerndorf (2-46) S. 147
N: P0919
O: Lothringen
S: PINCK, Louis: Verklingende Weisen, Bd 2, Metz 1928]
R: ???, erzhlendes Lied?]
M: 2/4
L: 1/16
K: D
F2 | A2d2dcB2 | A2A2F2
A2 | A3AG2E2 | D2F2A2
F2 | A2d2dcB2 | A2A2F2
A2 | A2A2G2E2 | D4z2
c2 | c2c2B2A2 | ^G4z2
G2 | d2d2^G2G2 | A4z2
e2 | e3ed2c2 | e3BB2
BB | c2c2^G2G2 | A2A2A2
F2 | A2d2dcB2 | A2A2F2
A2 | A3AB2E2 | D2F2A2 |  |  |  |  |  |  |  |  |  |  |  |  |  |  |  |  |  |  |  |  |  |  |  |  |  |  |  |  |  |  |  |  |  |  |  |  |  |  |  |  |  |  |  |  | 
f2 | F2A2dcB2 | A2A2F2 |  |  |  |  |  |  |  |  |  |  |  |  |  |  |  |  |  |  |  |  |  |  |  |  |  |  |  |  |  |  |  |  |  |  |  |  |  |  |  |  |  |  |  | 
a2 | A2A2G2E2 | D4z2

